packages/tokens/icons/gearNodalTree/size24Px.svg

<svg viewBox="0 0 24 24" fill="none" xmlns="http://www.w3.org/2000/svg" width="1em" height="1em"><rect x="17.5" y="17.5" width="4" height="3" rx="0.5" stroke="currentColor"/><rect x="2.5" y="17.5" width="4" height="3" rx="0.5" stroke="currentColor"/><rect x="8.5" y="18.5" width="7" height="3" rx="0.5" stroke="currentColor"/><path d="M12 12.5C12 15.0384 12 18.5 12 18.5M4.5 17.5V16C4.5 15.4477 4.94772 15 5.5 15H18.5C19.0523 15 19.5 15.4477 19.5 16V17.5" stroke="currentColor" stroke-linecap="round"/><path d="M16.7548 6.47172H16.2536C16.1508 6.02185 15.9708 5.61054 15.7395 5.22494L16.0865 4.87789C16.1893 4.77506 16.1893 4.62082 16.0865 4.51799L14.9941 3.42545C14.8913 3.32262 14.737 3.32262 14.6342 3.42545L14.2872 3.77249C13.9016 3.54113 13.4904 3.36118 13.0405 3.25835V2.75707C13.0405 2.61568 12.9249 2.5 12.7835 2.5H11.2412C11.0999 2.5 10.9842 2.61568 10.9842 2.75707V3.25835C10.5344 3.36118 10.1231 3.54113 9.73752 3.77249L9.37766 3.42545C9.27484 3.32262 9.12062 3.32262 9.0178 3.42545L7.92536 4.51799C7.82254 4.62082 7.82254 4.77506 7.92536 4.87789L8.27237 5.22494C8.04103 5.61054 7.8611 6.02185 7.75828 6.47172H7.25704C7.11567 6.47172 7 6.5874 7 6.72879V8.27121C7 8.4126 7.11567 8.52828 7.25704 8.52828H7.75828C7.8611 8.97815 8.04103 9.38946 8.27237 9.77506L7.92536 10.1221C7.82254 10.2249 7.82254 10.3792 7.92536 10.482L9.0178 11.5745C9.12062 11.6774 9.27484 11.6774 9.37766 11.5745L9.72467 11.2275C10.1102 11.4589 10.5215 11.6388 10.9713 11.7416V12.2429C10.9713 12.3843 11.087 12.5 11.2284 12.5H12.7706C12.912 12.5 13.0277 12.3843 13.0277 12.2429V11.7416C13.4775 11.6388 13.8888 11.4589 14.2744 11.2275L14.6214 11.5745C14.7242 11.6774 14.8784 11.6774 14.9812 11.5745L16.0737 10.482C16.1765 10.3792 16.1765 10.2249 16.0737 10.1221L15.7267 9.77506C15.958 9.38946 16.1379 8.97815 16.2407 8.52828H16.742C16.8834 8.52828 16.999 8.4126 16.999 8.27121V6.72879C17.0119 6.5874 16.8962 6.47172 16.7548 6.47172Z" stroke="currentColor" stroke-miterlimit="10"/><path d="M14 7.5C14 8.60457 13.1046 9.5 12 9.5C10.8954 9.5 10 8.60457 10 7.5C10 6.39543 10.8954 5.5 12 5.5C13.1046 5.5 14 6.39543 14 7.5Z" stroke="currentColor"/></svg>

<svg xmlns="http://www.w3.org/2000/svg" fill="none" viewBox="0 0 24 24" width="1em" height="1em"><rect width="4" height="3" x="17.5" y="17.5" stroke="currentColor" rx=".5"/><rect width="4" height="3" x="2.5" y="17.5" stroke="currentColor" rx=".5"/><rect width="7" height="3" x="8.5" y="18.5" stroke="currentColor" rx=".5"/><path stroke="currentColor" stroke-linecap="round" d="M12 12.5v6m-7.5-1V16a1 1 0 0 1 1-1h13a1 1 0 0 1 1 1v1.5"/><path stroke="currentColor" stroke-miterlimit="10" d="M16.755 6.472h-.501a4.257 4.257 0 0 0-.515-1.247l.348-.347a.249.249 0 0 0 0-.36l-1.093-1.093a.249.249 0 0 0-.36 0l-.347.347a4.256 4.256 0 0 0-1.247-.514v-.5a.258.258 0 0 0-.256-.258H11.24a.258.258 0 0 0-.257.257v.501a4.27 4.27 0 0 0-1.246.514l-.36-.347a.248.248 0 0 0-.36 0L7.925 4.518a.249.249 0 0 0 0 .36l.347.347a4.257 4.257 0 0 0-.514 1.247h-.501A.258.258 0 0 0 7 6.729V8.27c0 .142.116.257.257.257h.501c.103.45.283.861.514 1.247l-.347.347a.249.249 0 0 0 0 .36l1.093 1.093a.248.248 0 0 0 .36 0l.347-.348c.385.232.796.412 1.246.515v.5c0 .142.116.258.257.258h1.543a.258.258 0 0 0 .257-.257v-.501c.45-.103.86-.283 1.246-.515l.347.348a.248.248 0 0 0 .36 0l1.093-1.093a.249.249 0 0 0 0-.36l-.347-.347c.231-.386.41-.797.514-1.247h.501a.258.258 0 0 0 .257-.257V6.73a.24.24 0 0 0-.244-.257Z"/><path stroke="currentColor" d="M14 7.5a2 2 0 1 1-4 0 2 2 0 0 1 4 0Z"/></svg>
